src/icons/csi.svg

<?xml version="1.0" encoding="UTF-8"?>
<svg xmlns="http://www.w3.org/2000/svg" xmlns:xlink="http://www.w3.org/1999/xlink" width="34.276001" height="32" viewBox="0 0 34.276001 32" version="1.1">
<defs>
<radialGradient id="radial0" gradientUnits="userSpaceOnUse" cx="243.658005" cy="64.419998" fx="243.658005" fy="64.419998" r="264.601013" gradientTransform="matrix(0.11524,0,0,0.11524,-0.176,-1.07)">
<stop offset="0" style="stop-color:rgb(100%,94.117647%,0%);stop-opacity:1;"/>
<stop offset="1" style="stop-color:rgb(96.078432%,56.862748%,11.764706%);stop-opacity:1;"/>
</radialGradient>
<filter id="alpha" filterUnits="objectBoundingBox" x="0%" y="0%" width="100%" height="100%">
  <feColorMatrix type="matrix" in="SourceGraphic" values="0 0 0 0 1 0 0 0 0 1 0 0 0 0 1 0 0 0 1 0"/>
</filter>
<image id="image14" width="35" height="32" xlink:href="data:image/png;base64,iVBORw0KGgoAAAANSUhEUgAAACMAAAAgCAYAAACYTcH3AAAABmJLR0QA/wD/AP+gvaeTAAAAPklEQVRYhe3OoQHAIBAAsS/7Kxzb1mJOtyKZIM/MnPmHvb4e3GSKTJEpMkWmyBSZIlNkikyRKTJFpsgUmfICio4Ba8pWbo0AAAAASUVORK5CYII="/>
<mask id="mask0">
  <g filter="url(#alpha)">
<use xlink:href="#image14"/>
  </g>
</mask>
<clipPath id="clip2">
  <rect x="0" y="0" width="35" height="32"/>
</clipPath>
<g id="surface13" clip-path="url(#clip2)">
<path style=" stroke:none;fill-rule:nonzero;fill:rgb(96.470588%,57.254905%,11.764706%);fill-opacity:1;" d="M 31.085938 23.84375 C 30.320312 23.84375 29.566406 23.660156 28.886719 23.304688 C 28.011719 25.347656 26.113281 26.769531 23.90625 27.035156 C 23.664062 27.066406 23.417969 27.082031 23.171875 27.082031 C 20.023438 27.082031 17.386719 24.730469 17.003906 21.597656 C 16.992188 21.515625 16.980469 21.425781 16.960938 21.332031 C 16.605469 19.417969 15.582031 17.691406 14.078125 16.457031 C 14.574219 16.550781 15.082031 16.597656 15.609375 16.597656 C 17.28125 16.597656 19.011719 16.113281 20.761719 15.179688 C 20.761719 15.179688 20.773438 15.179688 20.773438 15.167969 L 20.796875 15.15625 C 20.820312 15.144531 20.84375 15.128906 20.867188 15.109375 C 20.867188 15.109375 21.40625 14.777344 22.25 14.578125 C 22.292969 14.566406 22.328125 14.566406 22.375 14.566406 C 22.605469 14.546875 22.847656 14.523438 23.089844 14.523438 C 24.679688 14.523438 26.15625 15.15625 27.296875 16.179688 C 28.195312 14.984375 29.601562 14.28125 31.097656 14.28125 C 31.179688 14.28125 31.273438 14.292969 31.351562 14.292969 C 30.75 13.550781 30.054688 12.890625 29.277344 12.332031 C 27.574219 10.960938 25.625 10.257812 23.503906 10.257812 C 21.824219 10.257812 20.046875 10.730469 18.746094 11.527344 C 17.972656 11.941406 16.808594 12.425781 15.621094 12.425781 C 14.515625 12.425781 13.605469 12.011719 12.867188 11.15625 C 12.246094 10.429688 11.902344 9.554688 11.890625 8.621094 C 11.945312 7.640625 12.351562 6.71875 13.03125 6.050781 C 13.769531 5.316406 14.769531 4.90625 15.808594 4.910156 C 16.867188 4.910156 17.871094 5.328125 18.605469 6.074219 C 18.882812 6.363281 19.125 6.6875 19.308594 7.03125 C 19.675781 7.742188 20.410156 8.1875 21.210938 8.183594 C 21.558594 8.183594 21.890625 8.101562 22.203125 7.941406 C 23.25 7.398438 23.65625 6.109375 23.113281 5.0625 C 22.734375 4.328125 22.246094 3.660156 21.660156 3.078125 C 20.121094 1.519531 18.019531 0.648438 15.828125 0.660156 C 13.894531 0.660156 12.003906 1.339844 10.527344 2.582031 C 10.425781 2.660156 10.332031 2.746094 10.242188 2.835938 C 10.21875 2.859375 10.183594 2.882812 10.160156 2.917969 L 10.125 2.953125 C 10.089844 2.976562 10.066406 3.011719 10.035156 3.03125 L 9.976562 3.089844 C 9.828125 3.238281 9.683594 3.398438 9.550781 3.5625 L 9.503906 3.597656 C 9.480469 3.632812 9.445312 3.65625 9.421875 3.691406 C 8.386719 4.96875 7.785156 6.542969 7.707031 8.183594 C 7.613281 10.257812 8.328125 12.285156 9.722656 13.898438 C 10.011719 14.222656 10.308594 14.523438 10.621094 14.789062 C 9.730469 14.601562 8.816406 14.558594 7.914062 14.660156 C 3.40625 15.191406 0.179688 19.292969 0.722656 23.796875 C 1.03125 26.390625 2.554688 28.683594 4.828125 29.972656 C 7.097656 31.261719 9.847656 31.394531 12.234375 30.332031 C 13.3125 29.847656 13.792969 28.585938 13.316406 27.507812 C 12.835938 26.4375 11.582031 25.953125 10.507812 26.425781 C 10.148438 26.585938 9.757812 26.691406 9.367188 26.738281 C 9.203125 26.761719 9.054688 26.761719 8.894531 26.761719 C 7.382812 26.761719 6.007812 25.898438 5.347656 24.539062 C 4.6875 23.179688 4.859375 21.5625 5.792969 20.375 C 6.4375 19.546875 7.390625 19.015625 8.433594 18.902344 C 8.59375 18.878906 8.742188 18.878906 8.90625 18.878906 C 10.898438 18.878906 12.59375 20.375 12.824219 22.347656 L 12.855469 22.589844 C 13.265625 25.039062 14.53125 27.265625 16.429688 28.867188 C 18.648438 30.75 21.546875 31.628906 24.4375 31.289062 C 28.933594 30.746094 32.4375 27.429688 33.414062 23.257812 C 32.699219 23.644531 31.898438 23.847656 31.085938 23.84375 M 31.085938 23.84375 "/>
</g>
<clipPath id="clip1">
  <rect x="0" y="0" width="35" height="32"/>
</clipPath>
<g id="surface16" clip-path="url(#clip1)">
<use xlink:href="#surface13" mask="url(#mask0)"/>
</g>
<radialGradient id="radial1" gradientUnits="userSpaceOnUse" cx="245.651993" cy="64.416" fx="245.651993" fy="64.416" r="264.712006" gradientTransform="matrix(0.11524,0,0,0.11524,-0.176,-1.07)">
<stop offset="0" style="stop-color:rgb(100%,94.117647%,0%);stop-opacity:1;"/>
<stop offset="1" style="stop-color:rgb(96.078432%,56.862748%,11.764706%);stop-opacity:1;"/>
</radialGradient>
<image id="image29" width="35" height="32" xlink:href="data:image/png;base64,iVBORw0KGgoAAAANSUhEUgAAACMAAAAgCAYAAACYTcH3AAAABmJLR0QA/wD/AP+gvaeTAAAASklEQVRYhe3TsQ2AMAwF0XPEAizBmCkzJNOwwKeNQbpXuvHJkkGSJOnfqmHnAkaYz2N3CXCSYyoN2xjz5lMxHd90kY9w7w6RpFYPmuQCK7xgrzwAAAAASUVORK5CYII="/>
<mask id="mask1">
  <g filter="url(#alpha)">
<use xlink:href="#image29"/>
  </g>
</mask>
<clipPath id="clip4">
  <rect x="0" y="0" width="35" height="32"/>
</clipPath>
<g id="surface28" clip-path="url(#clip4)">
<path style=" stroke:none;fill-rule:nonzero;fill:rgb(96.470588%,57.254905%,11.764706%);fill-opacity:1;" d="M 33.644531 19.074219 C 33.6875 20.015625 33.207031 20.902344 32.398438 21.382812 C 31.589844 21.867188 30.582031 21.867188 29.773438 21.382812 C 28.964844 20.902344 28.488281 20.011719 28.53125 19.070312 C 28.589844 17.703125 29.71875 16.625 31.089844 16.625 C 32.457031 16.625 33.585938 17.707031 33.644531 19.074219 M 33.644531 19.074219 "/>
</g>
<clipPath id="clip3">
  <rect x="0" y="0" width="35" height="32"/>
</clipPath>
<g id="surface31" clip-path="url(#clip3)">
<use xlink:href="#surface28" mask="url(#mask1)"/>
</g>
</defs>
<g id="surface1">
<path style=" stroke:none;fill-rule:nonzero;fill:url(#radial0);" d="M 31.085938 23.84375 C 30.320312 23.84375 29.566406 23.660156 28.886719 23.304688 C 28.011719 25.347656 26.113281 26.769531 23.90625 27.035156 C 23.664062 27.066406 23.417969 27.082031 23.171875 27.082031 C 20.023438 27.082031 17.386719 24.730469 17.003906 21.597656 C 16.992188 21.515625 16.980469 21.425781 16.960938 21.332031 C 16.605469 19.417969 15.582031 17.691406 14.078125 16.457031 C 14.574219 16.550781 15.082031 16.597656 15.609375 16.597656 C 17.28125 16.597656 19.011719 16.113281 20.761719 15.179688 C 20.761719 15.179688 20.773438 15.179688 20.773438 15.167969 L 20.796875 15.15625 C 20.820312 15.144531 20.84375 15.128906 20.867188 15.109375 C 20.867188 15.109375 21.40625 14.777344 22.25 14.578125 C 22.292969 14.566406 22.328125 14.566406 22.375 14.566406 C 22.605469 14.546875 22.847656 14.523438 23.089844 14.523438 C 24.679688 14.523438 26.15625 15.15625 27.296875 16.179688 C 28.195312 14.984375 29.601562 14.28125 31.097656 14.28125 C 31.179688 14.28125 31.273438 14.292969 31.351562 14.292969 C 30.75 13.550781 30.054688 12.890625 29.277344 12.332031 C 27.574219 10.960938 25.625 10.257812 23.503906 10.257812 C 21.824219 10.257812 20.046875 10.730469 18.746094 11.527344 C 17.972656 11.941406 16.808594 12.425781 15.621094 12.425781 C 14.515625 12.425781 13.605469 12.011719 12.867188 11.15625 C 12.246094 10.429688 11.902344 9.554688 11.890625 8.621094 C 11.945312 7.640625 12.351562 6.71875 13.03125 6.050781 C 13.769531 5.316406 14.769531 4.90625 15.808594 4.910156 C 16.867188 4.910156 17.871094 5.328125 18.605469 6.074219 C 18.882812 6.363281 19.125 6.6875 19.308594 7.03125 C 19.675781 7.742188 20.410156 8.1875 21.210938 8.183594 C 21.558594 8.183594 21.890625 8.101562 22.203125 7.941406 C 23.25 7.398438 23.65625 6.109375 23.113281 5.0625 C 22.734375 4.328125 22.246094 3.660156 21.660156 3.078125 C 20.121094 1.519531 18.019531 0.648438 15.828125 0.660156 C 13.894531 0.660156 12.003906 1.339844 10.527344 2.582031 C 10.425781 2.660156 10.332031 2.746094 10.242188 2.835938 C 10.21875 2.859375 10.183594 2.882812 10.160156 2.917969 L 10.125 2.953125 C 10.089844 2.976562 10.066406 3.011719 10.035156 3.03125 L 9.976562 3.089844 C 9.828125 3.238281 9.683594 3.398438 9.550781 3.5625 L 9.503906 3.597656 C 9.480469 3.632812 9.445312 3.65625 9.421875 3.691406 C 8.386719 4.96875 7.785156 6.542969 7.707031 8.183594 C 7.613281 10.257812 8.328125 12.285156 9.722656 13.898438 C 10.011719 14.222656 10.308594 14.523438 10.621094 14.789062 C 9.730469 14.601562 8.816406 14.558594 7.914062 14.660156 C 3.40625 15.191406 0.179688 19.292969 0.722656 23.796875 C 1.03125 26.390625 2.554688 28.683594 4.828125 29.972656 C 7.097656 31.261719 9.847656 31.394531 12.234375 30.332031 C 13.3125 29.847656 13.792969 28.585938 13.316406 27.507812 C 12.835938 26.4375 11.582031 25.953125 10.507812 26.425781 C 10.148438 26.585938 9.757812 26.691406 9.367188 26.738281 C 9.203125 26.761719 9.054688 26.761719 8.894531 26.761719 C 7.382812 26.761719 6.007812 25.898438 5.347656 24.539062 C 4.6875 23.179688 4.859375 21.5625 5.792969 20.375 C 6.4375 19.546875 7.390625 19.015625 8.433594 18.902344 C 8.59375 18.878906 8.742188 18.878906 8.90625 18.878906 C 10.898438 18.878906 12.59375 20.375 12.824219 22.347656 L 12.855469 22.589844 C 13.265625 25.039062 14.53125 27.265625 16.429688 28.867188 C 18.648438 30.75 21.546875 31.628906 24.4375 31.289062 C 28.933594 30.746094 32.4375 27.429688 33.414062 23.257812 C 32.699219 23.644531 31.898438 23.847656 31.085938 23.84375 M 31.085938 23.84375 "/>
<use xlink:href="#surface16"/>
<path style=" stroke:none;fill-rule:nonzero;fill:url(#radial1);" d="M 33.644531 19.074219 C 33.6875 20.015625 33.207031 20.902344 32.398438 21.382812 C 31.589844 21.867188 30.582031 21.867188 29.773438 21.382812 C 28.964844 20.902344 28.488281 20.011719 28.53125 19.070312 C 28.589844 17.703125 29.71875 16.625 31.089844 16.625 C 32.457031 16.625 33.585938 17.707031 33.644531 19.074219 M 33.644531 19.074219 "/>
<use xlink:href="#surface31"/>
</g>
</svg>

<svg xmlns:xlink="http://www.w3.org/1999/xlink" role="img" viewBox="0 0 34.276 32" xmlns="http://www.w3.org/2000/svg"><defs><path d="M0 0h35v32H0z" id="a"/><path d="M0 0h34.276v32H0z" id="c"/><path d="M31.086 23.844a4.732 4.732 0 0 1-2.2-.54 6.22 6.22 0 0 1-4.98 3.731 5.115 5.115 0 0 1-.734.047c-3.149 0-5.785-2.352-6.168-5.484-.012-.082-.024-.172-.043-.266a8.269 8.269 0 0 0-2.883-4.875c.496.094 1.004.14 1.531.14 1.672 0 3.403-.484 5.153-1.417 0 0 .011 0 .011-.012l.024-.012a.365.365 0 0 0 .07-.047s.54-.332 1.383-.53c.043-.013.078-.013.125-.013.23-.02.473-.043.715-.043 1.59 0 3.066.633 4.207 1.657a4.757 4.757 0 0 1 3.8-1.899c.083 0 .176.012.255.012a10.733 10.733 0 0 0-2.075-1.961c-1.703-1.371-3.652-2.074-5.773-2.074-1.68 0-3.457.472-4.758 1.27-.773.413-1.937.898-3.125.898-1.105 0-2.016-.414-2.754-1.27-.62-.726-.965-1.601-.976-2.535.054-.98.46-1.902 1.14-2.57a3.928 3.928 0 0 1 2.778-1.14c1.058 0 2.062.417 2.796 1.163.278.29.52.614.704.957a2.129 2.129 0 0 0 1.902 1.153c.348 0 .68-.082.992-.243a2.134 2.134 0 0 0 .91-2.878 7.944 7.944 0 0 0-1.453-1.985A8.135 8.135 0 0 0 15.828.66c-1.933 0-3.824.68-5.3 1.922a2.69 2.69 0 0 0-.285.254c-.024.023-.06.047-.083.082l-.035.035c-.035.024-.059.059-.09.078l-.058.059a5.7 5.7 0 0 0-.426.473l-.047.035c-.024.035-.059.058-.082.093a7.73 7.73 0 0 0-1.715 4.493c-.094 2.074.621 4.101 2.016 5.714.289.325.586.625.898.891a8.468 8.468 0 0 0-2.707-.129C3.406 15.191.18 19.293.723 23.797a8.22 8.22 0 0 0 11.511 6.535 2.142 2.142 0 0 0 1.082-2.824 2.133 2.133 0 0 0-2.808-1.082c-.36.16-.75.265-1.14.312-.165.024-.313.024-.473.024a3.948 3.948 0 0 1-3.102-6.387 3.885 3.885 0 0 1 2.64-1.473c.16-.023.31-.023.473-.023 1.992 0 3.688 1.496 3.918 3.469l.031.242a10.493 10.493 0 0 0 3.575 6.277 10.475 10.475 0 0 0 8.008 2.422c4.496-.543 8-3.86 8.976-8.031a4.856 4.856 0 0 1-2.328.586m0 0" id="e"/><path d="M33.645 19.074a2.56 2.56 0 1 1-5.115-.002 2.56 2.56 0 0 1 5.115.002m0 0" id="g"/><radialGradient cx="243.658" cy="64.42" fx="243.658" fy="64.42" gradientTransform="translate(-.176 -1.07)scale(.11524)" gradientUnits="userSpaceOnUse" id="h" r="264.601"><stop offset="0" style="stop-color:rgb(100%,94.117647%,0%);stop-opacity:1"/><stop offset="1" style="stop-color:rgb(96.078432%,56.862748%,11.764706%);stop-opacity:1"/></radialGradient><radialGradient cx="245.652" cy="64.416" fx="245.652" fy="64.416" gradientTransform="translate(-.176 -1.07)scale(.11524)" gradientUnits="userSpaceOnUse" id="k" r="264.712"><stop offset="0" style="stop-color:rgb(100%,94.117647%,0%);stop-opacity:1"/><stop offset="1" style="stop-color:rgb(96.078432%,56.862748%,11.764706%);stop-opacity:1"/></radialGradient><clipPath id="d"><use xlink:href="#a"/></clipPath><clipPath id="f"><use xlink:href="#a"/></clipPath><mask id="j"><g filter="url(#b)"><use xlink:href="#c" style="fill:rgb(0%,0%,0%);fill-opacity:0.6;stroke:none"/></g></mask><mask id="m"><g filter="url(#b)"><use xlink:href="#c" style="fill:rgb(0%,0%,0%);fill-opacity:0.6;stroke:none"/></g></mask><g clip-path="url(#d)" id="i"><use xlink:href="#e" style="stroke:none;fill-rule:nonzero;fill:rgb(96.470588%,57.254905%,11.764706%);fill-opacity:1"/></g><g clip-path="url(#f)" id="l"><use xlink:href="#g" style="stroke:none;fill-rule:nonzero;fill:rgb(96.470588%,57.254905%,11.764706%);fill-opacity:1"/></g><filter filterUnits="objectBoundingBox" height="100%" id="b" width="100%" x="0%" y="0%"><feColorMatrix in="SourceGraphic" values="0 0 0 0 1 0 0 0 0 1 0 0 0 0 1 0 0 0 1 0"/></filter></defs><use xlink:href="#e" style="stroke:none;fill-rule:nonzero;fill:url(#h)"/><use xlink:href="#i" mask="url(#j)"/><use xlink:href="#g" style="stroke:none;fill-rule:nonzero;fill:url(#k)"/><use xlink:href="#l" mask="url(#m)"/></svg>
